icons/search-2-line.svg

<svg width="24" height="24" fill="none" xmlns="http://www.w3.org/2000/svg"><g clip-path="url(#a)"><path d="M11 2c4.968 0 9 4.032 9 9s-4.032 9-9 9-9-4.032-9-9 4.032-9 9-9Zm0 16c3.867 0 7-3.133 7-7 0-3.868-3.133-7-7-7-3.868 0-7 3.132-7 7 0 3.867 3.132 7 7 7Zm8.485.071 2.829 2.828-1.415 1.415-2.828-2.829 1.414-1.414Z" /></g><defs><clipPath id="a"><path fill="#fff" d="M0 0h24v24H0z"/></clipPath></defs></svg>

<svg xmlns="http://www.w3.org/2000/svg" width="24" height="24" fill="none"><g clip-path="url(#a)"><g><path fill="#121212" d="M11 2C15.968 2 20 6.032 20 11C20 15.968 15.968 20 11 20C6.032 20 2 15.968 2 11C2 6.032 6.032 2 11 2ZM11 18C14.867 18 18 14.867 18 11C18 7.132 14.867 4 11 4C7.132 4 4 7.132 4 11C4 14.867 7.132 18 11 18ZM19.485 18.071L22.314 20.899L20.899 22.314L18.071 19.485L19.485 18.071Z"/></g></g><defs><clipPath id="a"><rect width="24" height="24" fill="white"/></clipPath></defs></svg>
